src/images/svg/binary-to-deriv/enhanced-icon.svg

<svg width="48" height="48" viewBox="0 0 48 48" fill="none" xmlns="http://www.w3.org/2000/svg">
<rect width="48" height="48" rx="8" fill="#5085B6"/>
<path fill-rule="evenodd" clip-rule="evenodd" d="M23.083 32.82C23.083 33.46 22.493 33.94 21.873 33.8C17.403 32.8 14.083 28.79 14.083 24C14.083 19.21 17.403 15.2 21.873 14.2C22.493 14.06 23.083 14.54 23.083 15.18V32.82ZM25.113 15.18V21.99C25.113 22.54 25.563 22.99 26.113 22.99H32.903C33.543 22.99 34.023 22.4 33.883 21.77C33.033 18.01 30.083 15.05 26.333 14.2C25.703 14.06 25.113 14.54 25.113 15.18ZM25.113 32.82V26.01C25.113 25.46 25.563 25.01 26.123 25H32.913C33.543 25 34.033 25.6 33.893 26.22C33.043 29.98 30.093 32.95 26.333 33.8C25.703 33.94 25.113 33.46 25.113 32.82Z" fill="white"/>
</svg>

<svg width="48" height="48" fill="none" xmlns="http://www.w3.org/2000/svg"><rect width="48" height="48" rx="8" fill="#5085B6"/><path fill-rule="evenodd" clip-rule="evenodd" d="M23.083 32.82c0 .64-.59 1.12-1.21.98-4.47-1-7.79-5.01-7.79-9.8 0-4.79 3.32-8.8 7.79-9.8a.998.998 0 0 1 1.21.98v17.64zm2.03-17.64v6.81c0 .55.45 1 1 1h6.79c.64 0 1.12-.59.98-1.22-.85-3.76-3.8-6.72-7.55-7.57-.63-.14-1.22.34-1.22.98zm0 17.64v-6.81c0-.55.45-1 1.01-1.01h6.79c.63 0 1.12.6.98 1.22-.85 3.76-3.8 6.73-7.56 7.58-.63.14-1.22-.34-1.22-.98z" fill="#fff"/></svg>
